X: 13
T: The Fyket
O: Trad Scotland
B: RSCDS "5 Traditional Scottish Country Dances for 1965"
R: jig
Z: 2009 John Chambers <jc:trillian.mit.edu>
M: 6/8
L: 1/8
K: G
   B \
| "G"G2G GBd | "G"g2d dgf | "C"e2d    c2B | "D7"A2G  FED \
| "G"G2G GBd | "G"g2d dgf | "C"edc "G"BAG | "D7"A3 "G"G2 :|
|: g/a/ \
| "G"b2b "D/F#"b2a | "Em"g2g g2d | "C"e2d    e2g | "D7"a2g  fed \
| "G"b2b "D/F#"b2a | "Em"g2g g2d | "C"efg "G"dBG | "D7"A3 "G"G2 :|
%%sep 3 1 500
